X: 38907
T: Suo Gan
R: reel
M: 4/4
K: Gmajor
G3 A B d3|A3 G B A3|G3 A B d3|A2 B2 G4:|
B3 c d B3|e3 c d B3|B3 c d2 B2|g3 e d4|
G3 A B d3|A3 G B A3|G3 A B d3|A2 B2 G4||
D3 E F A3|E3 D F E3|D3 E F A3|E2 F2 D4:|
F3 G A F3|B3 G A F3|F3 G A2 F2|d3 B A4|
D3 E F A3|E3 D F E3|D3 E F A3|E2 F2 D4||

